X: 17485
T: Hill's Fancy
R: hornpipe
M: 4/4
K: Gmajor
dc|B<Fdc B2dc|B<Fdc B2ed|c<Fed c2ed|c<Fed cdcB|
B<Fdc B2dc|B<Fdc BcdB|cded cFGA|B2d2B2:|
|:fe|dBfe d2fe|dfga bfed|cFed c2ed|cdcB Agfe|
dBfe d2fe|dfga bfed|cdcB AFGA|B2d2B2:|
BA|GDBA G2B2|GDBA G2B2|ADcB A2c2|ABAG FDEF|
GDBA G2B2|GDBA G2B2|ABAG FDEF|G2B2 G2:|
|:dc|BGdc B2d2|BGBd gdBG|ADcB A2c2|ABAG FAdc|
BGdc B2d2|BGBd gdBG|ABAG FDEF|G2B2 G2:|

